svgs/light/menorah.svg

<svg xmlns="http://www.w3.org/2000/svg" viewBox="0 0 640 512"><!--! Font Awesome Pro 6.3.0 by @fontawesome - https://fontawesome.com License - https://fontawesome.com/license (Commercial License) Copyright 2023 Fonticons, Inc. --><path d="M608 128c-8.801 0-16 7.199-16 16v160c0 26.51-21.49 48-48 48h-16V144C528 135.2 520.8 128 512 128s-16 7.199-16 16V352h-64V144C432 135.2 424.8 128 416 128s-16 7.199-16 16V352h-64V144C336 135.2 328.8 128 320 128S304 135.2 304 144V352h-64V144C240 135.2 232.8 128 224 128S208 135.2 208 144V352h-64V144C144 135.2 136.8 128 128 128S112 135.2 112 144V352H96c-26.51 0-48-21.49-48-48v-160C48 135.2 40.8 128 32 128S16 135.2 16 144v160C16 348.2 51.82 384 96 384h208v96h-160C135.2 480 128 487.2 128 496C128 504.8 135.2 512 144 512h352c8.801 0 16-7.201 16-16c0-8.801-7.199-16-16-16h-160v-96H544c44.18 0 80-35.82 80-80v-160C624 135.2 616.8 128 608 128zM32 95.1c8.844 0 16-7.156 16-15.1v-64c0-8.844-7.156-16-16-16S16 7.156 16 16v64C16 88.84 23.16 95.1 32 95.1zM128 95.1c8.844 0 16-7.156 16-15.1v-64c0-8.844-7.156-16-16-16S112 7.156 112 16v64C112 88.84 119.2 95.1 128 95.1zM224 95.1c8.844 0 16-7.156 16-15.1v-64c0-8.844-7.156-16-16-16S208 7.156 208 16v64C208 88.84 215.2 95.1 224 95.1zM320 95.1c8.844 0 16-7.156 16-15.1v-64c0-8.844-7.156-16-16-16S304 7.156 304 16v64C304 88.84 311.2 95.1 320 95.1zM416 95.1c8.844 0 16-7.156 16-15.1v-64c0-8.844-7.156-16-16-16S400 7.156 400 16v64C400 88.84 407.2 95.1 416 95.1zM512 95.1c8.844 0 16-7.156 16-15.1v-64c0-8.844-7.156-16-16-16S496 7.156 496 16v64C496 88.84 503.2 95.1 512 95.1zM608 0c-8.844 0-16 7.156-16 16v64c0 8.844 7.156 15.1 16 15.1S624 88.84 624 80v-64C624 7.156 616.8 0 608 0z"/></svg>

<svg xmlns="http://www.w3.org/2000/svg" viewBox="0 0 640 512"><!-- Font Awesome Pro 6.0.0-alpha2 by @fontawesome - https://fontawesome.com License - https://fontawesome.com/license (Commercial License) --><path d="M608 128C599.199 128 592 135.199 592 144V304C592 330.51 570.51 352 544 352H528V144C528 135.199 520.801 128 512 128S496 135.199 496 144V352H432V144C432 135.199 424.801 128 416 128S400 135.199 400 144V352H336V144C336 135.199 328.801 128 320 128S304 135.199 304 144V352H240V144C240 135.199 232.801 128 224 128S208 135.199 208 144V352H144V144C144 135.199 136.801 128 128 128S112 135.199 112 144V352H96C69.49 352 48 330.51 48 304V144C48 135.199 40.801 128 32 128S16 135.199 16 144V304C16 348.182 51.816 384 96 384H304V480H144C135.199 480 128 487.199 128 496C128 504.799 135.199 512 144 512H496C504.801 512 512 504.799 512 496C512 487.199 504.801 480 496 480H336V384H544C588.184 384 624 348.182 624 304V144C624 135.199 616.801 128 608 128ZM32 96C40.844 96 48 88.844 48 80V16C48 7.156 40.844 0 32 0S16 7.156 16 16V80C16 88.844 23.156 96 32 96ZM128 96C136.844 96 144 88.844 144 80V16C144 7.156 136.844 0 128 0S112 7.156 112 16V80C112 88.844 119.156 96 128 96ZM224 96C232.844 96 240 88.844 240 80V16C240 7.156 232.844 0 224 0S208 7.156 208 16V80C208 88.844 215.156 96 224 96ZM320 96C328.844 96 336 88.844 336 80V16C336 7.156 328.844 0 320 0S304 7.156 304 16V80C304 88.844 311.156 96 320 96ZM416 96C424.844 96 432 88.844 432 80V16C432 7.156 424.844 0 416 0S400 7.156 400 16V80C400 88.844 407.156 96 416 96ZM512 96C520.844 96 528 88.844 528 80V16C528 7.156 520.844 0 512 0S496 7.156 496 16V80C496 88.844 503.156 96 512 96ZM608 0C599.156 0 592 7.156 592 16V80C592 88.844 599.156 96 608 96S624 88.844 624 80V16C624 7.156 616.844 0 608 0Z"/></svg>
